assets/svg/previous_video.svg

<svg fill="none" height="15" viewBox="0 0 21 15" width="21" xmlns="http://www.w3.org/2000/svg"><path clip-rule="evenodd" d="m20.3334 13.7794c0 .7397-.8508 1.1558-1.4346.7017l-8-6.22224c-.4576-.35587-.4576-1.04742 0-1.40329l8-6.222224c.5838-.454124 1.4346-.038041 1.4346.701644zm-9.7778 0c0 .7397-.85075 1.1558-1.43462.7017l-8-6.22224c-.457551-.35587-.457551-1.04742 0-1.40329l8-6.222224c.58387-.454124 1.43462-.038041 1.43462.701644z" fill="#fff" fill-rule="evenodd"/></svg>

<svg width="21" height="15" viewBox="0 0 21 15" fill="none" xmlns="http://www.w3.org/2000/svg">
<path fill-rule="evenodd" clip-rule="evenodd" d="M20.3334 13.7794C20.3334 14.5191 19.4826 14.9352 18.8988 14.4811L10.8988 8.25886C10.4412 7.90299 10.4412 7.21144 10.8988 6.85557L18.8988 0.633346C19.4826 0.179222 20.3334 0.595305 20.3334 1.33499V13.7794ZM10.5556 13.7794C10.5556 14.5191 9.70485 14.9352 9.12098 14.4811L1.12098 8.25886C0.663429 7.90299 0.663429 7.21144 1.12098 6.85557L9.12098 0.633346C9.70485 0.179222 10.5556 0.595305 10.5556 1.33499V13.7794Z" fill="white"/>
</svg>
